!!!!SEGMENT: pl-kk--kk-i-40--008-002_pottier-matthias--missa-sine-nomine-et-in-terra.krn
!!!cenid: 16xx:1307
!!!COM: Pottier, Matthias
!!!COM-rismid: pe41020834
!!!CDT: ~1553-1629
!!!CNT: Belgian
!!!OPR: Missa sine nomine
!!!OTL: Et in terra
!!!OMV: 002
!!!PDT:
!!!AGN: Sacred; Mass
!!!SMS-siglum: PL-Kk
!!!SMS-shelfmark: Kk.I.40
!!!SMS-shelfwork: 008-002 M
!!!SMS-variant:
!!!SMS-altvar:
!!!NIFC-rismid: 1001154530
!!!URL-scan: http://repozytorium.nifc.pl/skany/pl-kk-nut--i-40
!!!ONB-nifc: UWAGA: części Mszy: 1. Kyrie, 2. Et in terra, 3. Sanctus, 4. Agnus Dei. Skan 0011-0012
**kern	**text
*Iempty	*
*I"Baſso Ripieno.	*
*I'B rip	*
*clefC4	*
*k[]	*
*g:	*
*M2/1	*
*met(C|)	*
=1-	=1-
1.d	Et
*2\right	*
!LO:TX:t=P:problem:kreska pseudotaktowa	!
2A\	in
=2-	=2-
2d\	ter-
!LO:TX:t=P:problem:kreska pseudotaktowa	!
2c\	-ra
2G/	pax
!LO:TX:t=P:problem:kreska pseudotaktowa	!
2D/	ho-
=3-	=3-
2.A/	-mi-
4A/	-ni-
!LO:TX:t=P:problem:kreska pseudotaktowa	!
1D	-b(us)
=4-	=4-
!LO:TX:t=P:problem:kreska pseudotaktowa	!
00r	.
=5-	=5-
.	.
=6-	=6-
1d	Lau-
2B-X\	-da-
!LO:TX:t=P:problem:kreska pseudotaktowa	!
2G/	-m(us)
=7-	=7-
2A,<\	Te
!LO:TX:t=P:problem:kreska pseudotaktowa	!
2A/	be-
2D/	-ne-
2.G/	-di-
=8-	=8-
.	.
4G/	-ci-
2D/	-m(us)
!LO:TX:t=P:problem:kreska pseudotaktowa	!
1A,<	Te
=9-	=9-
0r	.
=10-	=10-
!LO:TX:t=P:problem:kreska pseudotaktowa	!
1r	.
1E	glo-
=11-	=11-
2.A/	-ri-
!LO:TX:t=P:problem:kreska pseudotaktowa	!
4G/	.
2F/	.
2C/	-fi-
=12-	=12-
2G/	-ca-
!LO:TX:t=P:problem:kreska pseudotaktowa	!
2D/	-m(us)
!LO:TX:t=P:problem:kreska pseudotaktowa	!
1A	Te
=13-	=13-
2r	.
2.d\	Gra-
4d\	-ti-
!LO:TX:t=P:problem:kreska pseudotaktowa	!
2G/	-as
=14-	=14-
2.c\	a-
4c\	-gi-
!LO:TX:t=P:problem:kreska pseudotaktowa	!
1F	-m(us)
!LO:LB:g=original	!
=15-	=15-
1B-X	Ti-
2A,<\	-bi
!LO:TX:t=P:problem:kreska pseudotaktowa	!
2A\	p(ro)p-
=16-	=16-
2D/	-ter
!LO:TX:t=P:problem:kreska pseudotaktowa	!
2G/	ma-
2C/	-gnam
2.c\	glo-
=17-	=17-
.	.
4Bny\	.
4A/	.
!LO:TX:t=P:problem:kreska pseudotaktowa	!
4G/	.
1.A	.
=18-	=18-
.	.
!LO:TX:t=P:problem:kreska pseudotaktowa	!
2A\	-ri-
2E/	-am
2F/	tu-
=19-	=19-
!LO:TX:t=P:problem:kreska pseudotaktowa	!
1E,<	-am
2r	.
2.A\	Do-
=20-	=20-
.	.
4A\	-mi-
!LO:TX:t=P:problem:kreska pseudotaktowa	!
2A\	-ne
1d	De-
=21-	=21-
!LO:TX:t=P:problem:kreska pseudotaktowa	!
1G,<	-us
2r	.
2.c\	Rex
=22-	=22-
.	.
4B\	.
1A	.
!LO:TX:t=P:problem:kreska pseudotaktowa	!
2G#X/	cae-
=23-	=23-
1A	-les-
!LO:TX:t=P:problem:kreska pseudotaktowa	!
1E,<	-tis
=24-	=24-
1A	De-
!LO:TX:t=P:problem:kreska pseudotaktowa	!
1D	-us
=25-	=25-
1Gny	Pa-
2C/	-ter
!LO:TX:t=P:problem:kreska pseudotaktowa	!
2F/	Om-
=26-	=26-
4D/	-ni-
4E/	.
4F/	.
4D/	.
2.A\	.
!LO:SIC:v:t=custos D	!
!LO:TX:t=P:problem:kreska pseudotaktowa	!
4A\	-po-
!LO:LB:g=original	!
=27-	=27-
2D,</	-tens
2.d\	Do-
4d\	-mi-
!LO:TX:t=P:problem:kreska pseudotaktowa	!
2d\	-ne
=28-	=28-
1.G	Fi-
2D/	-li
=29-	=29-
2A/	U-
!LO:TX:t=P:problem:kreska pseudotaktowa	!
2E/	-ni-
2A/	-ge-
2D/	-ni-
=30-	=30-
!LO:TX:t=P:problem:kreska pseudotaktowa	!
1A,<	-te
2r	.
1d\	Je-
=31-	=31-
.	.
!LO:TX:t=P:problem:kreska pseudotaktowa	!
2B-X\	-su
0B-	X-
=32-	=32-
.	.
!LO:TX:t=P:problem:kreska pseudotaktowa	!
1F	-te
=33-	=33-
!LO:TX:t=P:problem:kreska pseudotaktowa	!
1r	.
2.F/	Do-
4F/	-mi-
=34-	=34-
!LO:TX:t=P:problem:kreska pseudotaktowa	!
1F	-ne
2c\	De-
!LO:TX:t=P:problem:kreska pseudotaktowa	!
2F/	-us
=35-	=35-
2r	.
2.c\	A-
4Bny\	.
4A/	.
!LO:TX:t=P:problem:kreska pseudotaktowa	!
4G/	.
=36-	=36-
2F/	.
2F/	-gnus
1D	De-
=37-	=37-
!LO:TX:t=P:problem:kreska pseudotaktowa	!
0E,<	-i
=38-	=38-
2r	.
2.A\	Fi-
4A\	-li-
!LO:TX:t=P:problem:kreska pseudotaktowa	!
2d\	-us
=39-	=39-
2A/	Pa-
2D/	-tris
2r	.
2.F/	Fi-
=40-	=40-
.	.
4F/	-li-
!LO:TX:t=P:problem:kreska pseudotaktowa	!
2c\	-(us)
!LO:LB:g=original	!
2.F/	Pa-
4E/	.
=41-	=41-
0D	.
=42-	=42-
0Al;	-tris.
=43||	=43||
*M2/1	*
*met(C|)	*
00r	.
=44-	=44-
.	.
=45-	=45-
0r	.
=46-	=46-
!LO:TX:t=P:problem:kreska pseudotaktowa	!
1r	.
2.A/	Mi-
!LO:TX:t=P:problem:kreska pseudotaktowa	!
4G/	-se-
=47-	=47-
2F/	-re-
2C,</	-re
(2G/	no-
!LO:TX:t=P:problem:kreska pseudotaktowa	!
2D/)	.
=48-	=48-
1A	.
!LO:TX:t=P:problem:kreska pseudotaktowa	!
0D,<	-bis.
=49-	=49-
.	.
00r	.
=50-	=50-
.	.
=51-	=51-
.	.
!LO:TX:t=P:problem:kreska pseudotaktowa	!
0r	.
=52-	=52-
.	.
1.D	Sus-
=53-	=53-
!LO:TX:t=P:problem:kreska pseudotaktowa	!
.	.
2D/	-ci-
2G,</	-pe
1G/	de-
=54-	=54-
.	.
!LO:TX:t=P:problem:kreska pseudotaktowa	!
2G/	-pre-
2C/	-ca-
!LO:TX:t=P:problem:kreska pseudotaktowa	!
2C/	-ti-
=55-	=55-
(2.F/	-o-
4E/)	.
2D/	.
!LO:TX:t=P:problem:kreska pseudotaktowa	!
2D/	-nem
=56-	=56-
0A	nos-
=57-	=57-
!LO:TX:t=P:problem:kreska pseudotaktowa	!
1E,<	-tram
2r	.
2A\	Qui
=58-	=58-
1d	se-
!LO:TX:t=P:problem:kreska pseudotaktowa	!
1G	-des
!LO:LB:g=original	!
=59-	=59-
!LO:TX:t=P:problem:kreska pseudotaktowa	!
1c	ad
1.F	dex-
=60-	=60-
.	.
2C/	-te-
2D/	-ram
!LO:TX:t=P:problem:kreska pseudotaktowa	!
2A\	Pa-
=61-	=61-
2D,</	-tris
1d	mi-
!LO:TX:t=P:problem:kreska pseudotaktowa	!
2G/	-ſe-
=62-	=62-
2c\	-re-
!LO:TX:t=P:problem:kreska pseudotaktowa	!
2A\	-re
1B-X	no-
=63-	=63-
!LO:TX:t=P:problem:kreska pseudotaktowa	!
1A,<	-bis
!LO:TX:t=P:problem:kreska pseudotaktowa	!
1r	.
=64-	=64-
2.G/	Quo-
4G/	-ni-
!LO:TX:t=P:problem:kreska pseudotaktowa	!
1c,<	-am
=65-	=65-
1F	Tu
2B-X\	so-
!LO:TX:t=P:problem:kreska pseudotaktowa	!
2B-\	-lus
=66-	=66-
2.F/	San-
!LO:TX:t=P:problem:kreska pseudotaktowa	!
4G/	.
4A\	.
4Bny\	.
2c\	.
=67-	=67-
!LO:TX:t=P:problem:kreska pseudotaktowa	!
1G	-ct(us)
2r	.
2D/	Tu
=68-	=68-
!LO:TX:t=P:problem:kreska pseudotaktowa	!
1G	so-
2C,</	-l(us)
2.c\	Do-
=69-	=69-
.	.
4B\	.
4A/	.
!LO:TX:t=P:problem:kreska pseudotaktowa	!
4G/	.
2.F/	.
4F/	-mi-
=70-	=70-
!LO:TX:t=P:problem:kreska pseudotaktowa	!
1C	-n(us)
!LO:LB:g=original	!
2r	.
2G/	Tu
=71-	=71-
1c	so-
2A\	-l(us)
2d\	al-
=72-	=72-
2B-X\	-tiſ-
2G/	-si-
!LO:TX:t=P:problem:kreska pseudotaktowa	!
0A	-m(us)
=73-	=73-
.	.
2r	.
2.c\	Je-
=74-	=74-
.	.
4Bny\	.
!LO:TX:t=P:problem:kreska pseudotaktowa	!
2A/	.
2G,</	-su
2D/	X-
=75-	=75-
!LO:TX:t=P:problem:kreska pseudotaktowa	!
1A,<	-te
2r	.
2D/	Cum
=76-	=76-
2d\	S(an)-
!LO:TX:t=P:problem:kreska pseudotaktowa	!
2c\	-cto
2B-X\	Spi-
2G/	-ri-
=77-	=77-
!LO:TX:t=P:problem:kreska pseudotaktowa	!
1F	-tu
1r	.
=78-	=78-
2r	.
!LO:TX:t=P:problem:kreska pseudotaktowa	!
2A\	in
2.d\	glo-
4d\	-ri-
=79-	=79-
2c,<\	-a
!LO:TX:t=P:problem:kreska pseudotaktowa	!
2d\	De-
2A\	-i
2B-X\	Pat-
=80-	=80-
!LO:TX:t=P:problem:kreska pseudotaktowa	!
1A	-ris
00r	.
=81-	=81-
.	.
=82-	=82-
.	.
2r	.
2.d\	A-
=83-	=83-
.	.
4c\	.
4B-X\	.
!LO:TX:t=P:problem:kreska pseudotaktowa	!
4A\	.
*lig	*
1G	.
=84-	=84-
1d	.
*Xlig	*
2D,</	-men
*	*ij
!LO:TX:t=P:problem:kreska pseudotaktowa:między nutą a kropką	!
2.D/	A-
=85-	=85-
.	.
4E/	.
4F/	.
4D/	.
1A	.
=86-	=86-
2D,</	-men
*	*Xij
2.d\	A-
4c\	.
4Bny\	.
4A\	.
=87-	=87-
0G	.
=88-	=88-
0Dl;	-men
==	==
*-	*-
!!!RDF**kern: < = below
!!!RDF**kern: l = terminal long
!!!ENC: Andrzej Kubiczek
!!!END: 2021-08-01
!!!ENC: Tomasz Grochalski
!!!END: 2021-07-05
